!!!!SEGMENT: pl-gd--ee-1638--005-002_marenzio-luca--il-primo-libro-de-madrigali-spirituali-a-cinque-voci-le-dubie-spemi.krn
!!!cenid: 15xx:955
!!!COM: Marenzio, Luca
!!!COM-rismID: pe30003955
!!!CDT: ~1553-1599/08/22
!!!CNT: Italian
!!!GTL: Il Primo libro de madrigali spirituali a cinque voci
!!!OTL: Le dubie spemi
!!!OMV: 002
!!!PDT: 1588
!!!AGN:
!!!YEC: Copyright 2022 Narodowy Instytut Fryderyka Chopina (https://polishscores.org)
!!!YEM: License CC-BY-4.0 (https://creativecommons.org/licenses/by/4.0)
!!!SMS-siglum: PL-GD
!!!SMS-shelfmark: Ee 1638
!!!SMS-shelfwork: 005-002 G
!!!SMS-variant:
!!!SMS-altvar:
!!!NIFC-rismSourceID: 1001202747
!!!NIFC-rismChildID: 990039269
!!!NIFC-islandoraID: pl-gd:57883
!!!URL-pdf-islandora: https://repozytorium.nifc.pl/islandora/object/pl-gd%3A57883/datastream/PDF/view
!!!URL-scan: https://polish.musicsources.pl/pl/lokalizacje/galeria/klocki-introligatorskie/655 @EN{Scan on Polish Music Sources Website} @PL{Skany w portalu Dziedzictwo Muzyki Polskiej w otwartym dostępie}
!!!IIIF:
!!!ONB-nifc: UWAGA: zbiór na stronach: Canto: s. 666-677, Alto: s. 514-525, Tenore: s. 362-373, Bassus: s. 210-221, Quinto: s. 58-69. Uwaga: utwory podzielone wg tytułów w spisach treści dostępnych na końcu każdej księgi głosowej.
!!!AIN: 1 alto 1 bass 1 soprn 1 tenor 1 vox
!!!key: e:phr
**kern	**text	**mod-text	**kern	**text	**mod-text	**kern	**text	**mod-text	**kern	**text	**mod-text	**kern	**text	**mod-text
*part4	*	*	*part3	*	*	*part5	*	*	*part2	*	*	*part1	*	*
*staff5	*	*	*staff3	*	*	*staff4	*	*	*staff2	*	*	*staff1	*	*
*I"BASSO	*	*	*I"TENORE	*	*	*I"QVINTO	*	*	*I"ALTO	*	*	*I"CANTO	*	*
*mI"Basso	*	*	*mI"Tenore II	*	*	*mI"Tenore I	*	*	*mI"Alto	*	*	*mI"Soprano	*	*
*I'B	*	*	*I'T	*	*	*I'V	*	*	*I'A	*	*	*I'S	*	*
*mI'B	*	*	*mI'T II	*	*	*mI'T I	*	*	*mI'A	*	*	*mI'S	*	*
*ICvox	*	*	*ICvox	*	*	*ICvox	*	*	*ICvox	*	*	*ICvox	*	*
*Ibass	*	*	*Itenor	*	*	*Ivox	*	*	*Ialto	*	*	*Isoprn	*	*
*clefF4	*	*	*clefC4	*	*	*clefC4	*	*	*clefC3	*	*	*clefC1	*	*
*	*	*	*mclefGv2	*	*	*mclefGv2	*	*	*mclefG2	*	*	*mclefG2	*	*
*k[]	*	*	*k[]	*	*	*k[]	*	*	*k[]	*	*	*k[]	*	*
*e:phr	*	*	*e:phr	*	*	*e:phr	*	*	*e:phr	*	*	*e:phr	*	*
*M2/1	*	*	*M2/1	*	*	*M2/1	*	*	*M2/1	*	*	*M2/1	*	*
*met(C|)	*	*	*met(C|)	*	*	*met(C|)	*	*	*met(C|)	*	*	*met(C|)	*	*
*mmet(c|)	*	*	*mmet(c|)	*	*	*mmet(c|)	*	*	*mmet(c|)	*	*	*mmet(c|)	*	*
=1-	=1-	=1-	=1-	=1-	=1-	=1-	=1-	=1-	=1-	=1-	=1-	=1-	=1-	=1-
!!LO:TX:t=P:problem: tekst uzgodniony z wydaniem: Canzonieri Del Secolo XVI:mod=
!!LO:TX:a:B:t=Prima Parte
00r	.	.	00r	.	.	1r	.	.	1r	.	.	0e	LE	Le
.	.	.	.	.	.	0e	LE	Le	0c	LE	Le	.	.	.
=2-	=2-	=2-	=2-	=2-	=2-	=2-	=2-	=2-	=2-	=2-	=2-	=2-	=2-	=2-
.	.	.	.	.	.	.	.	.	.	.	.	1.g	dub-	dub-
.	.	.	.	.	.	1.c	dub-	dub-	1.e	dub-	dub-	.	.	.
.	.	.	.	.	.	.	.	.	.	.	.	2a\	-bie	-bie
=3-	=3-	=3-	=3-	=3-	=3-	=3-	=3-	=3-	=3-	=3-	=3-	=3-	=3-	=3-
00r	.	.	00r	.	.	.	.	.	.	.	.	1g	ſpe-	spe-
.	.	.	.	.	.	2B\	-bie	-bie	2d\	-bie	-bie	.	.	.
.	.	.	.	.	.	2c\	ſpe-	spe-	1e	ſpe-	spe-	1.g	-mi il	-mi, il
.	.	.	.	.	.	2G/	-mi il	-mi, il	.	.	.	.	.	.
=4-	=4-	=4-	=4-	=4-	=4-	=4-	=4-	=4-	=4-	=4-	=4-	=4-	=4-	=4-
.	.	.	.	.	.	1A	pian-	pian-	2c#X/	-mi il	-mi, il	.	.	.
.	.	.	.	.	.	.	.	.	1d	pian-	pian-	1f	pia(n)-	pia(n)-
.	.	.	.	.	.	1A	-t’e’l	-to e’l	.	.	.	.	.	.
!	!	!	!	!	!	!	!	!	!LO:SIC:s=2c#/	!	!	!	!	!
.	.	.	.	.	.	.	.	.	2c#X/	-to	-to,	2e/	-to e’l	-to e’l
=5-	=5-	=5-	=5-	=5-	=5-	=5-	=5-	=5-	=5-	=5-	=5-	=5-	=5-	=5-
1r	.	.	0E	LE	Le	2B\	van	van	1r	.	.	2g#X/	van	van
.	.	.	.	.	.	2c\	do-	do-	.	.	.	2a\	do-	do-
*	*	*	*	*	*	*	*	*	*	*ij	*ij	*	*	*
0E	LE	Le	.	.	.	1B	-lo-	-lo-	0g	LE	le	1b	-lo-	-lo-
=6-	=6-	=6-	=6-	=6-	=6-	=6-	=6-	=6-	=6-	=6-	=6-	=6-	=6-	=6-
.	.	.	1.G	dub-	dub-	0E	-re	-re,	.	.	.	1b	-re	-re,
1.C	dub-	dub-	.	.	.	.	.	.	1.e	dub-	dub-	2r	.	.
.	.	.	2A/	-bie	-bie	.	.	.	.	.	.	2e/	Le	le
=7-	=7-	=7-	=7-	=7-	=7-	=7-	=7-	=7-	=7-	=7-	=7-	=7-	=7-	=7-
.	.	.	1G	ſpe-	spe-	2r	.	.	.	.	.	1.gny	dub-	dub-
*	*	*	*	*	*	*	*ij	*ij	*	*	*	*	*	*
2BB/	-bie	-bie	.	.	.	1G	LE	le	2d\	-bie	-bie	.	.	.
1.C	ſpe-	spe-	1E	-mi	-mi,	.	.	.	1.e	ſpe-	spe-	.	.	.
.	.	.	.	.	.	1c\	dub-	dub-	.	.	.	2a\	-bie	-bie
=8-	=8-	=8-	=8-	=8-	=8-	=8-	=8-	=8-	=8-	=8-	=8-	=8-	=8-	=8-
.	.	.	2r	.	.	.	.	.	.	.	.	2g/	ſpe-	spe-
*	*	*	*	*	*	*	*	*	*	*	*	*custos:g	*	*
!	!	!	!	!	!	!	!	!	!	!	!	!LO:LB:g=original	!	!
2GG/	-mi il	-mi, il	1G	il	il	2B\	-bie	-bie	2d\	-mi il	-mi, il	2g/	-mi il	-mi, il
*	*	*	*	*	*	*custos:A	*	*	*	*	*	*	*	*
!	!	!	!	!	!	!LO:LB:g=original	!	!	!	!	!	!	!	!
1D	pia(n)-	pia(n)-	.	.	.	1.A	ſpe-	spe-	1d	pian-	pian-	1a	pian-	pian-
.	.	.	1F/	pia(n)-	pia(n)-	.	.	.	.	.	.	.	.	.
=9-	=9-	=9-	=9-	=9-	=9-	=9-	=9-	=9-	=9-	=9-	=9-	=9-	=9-	=9-
1AA	-t’e’l	-to e’l	.	.	.	.	.	.	1cny	-to	-to e’l	1a	-to	-to
*	*	*	*	*	*	*	*	*	*	*Xij	*Xij	*	*	*
.	.	.	2E/	-to e’l	-to e’l	1e	-mi il	-mi il	.	.	.	.	.	.
*	*	*	*	*	*	*	*	*	*custos:B	*	*	*	*	*
!	!	!	!	!	!	!	!	!	!LO:LB:g=original	!	!	!	!	!
2E\	va(n)	va(n)	2G#X/	van	van	.	.	.	2B/	e’l van	van	1r	.	.
2F\	do-	do-	2A/	do-	do-	1d\	pian-	pian-	2A/	do-	do-	.	.	.
=10-	=10-	=10-	=10-	=10-	=10-	=10-	=10-	=10-	=10-	=10-	=10-	=10-	=10-	=10-
0E	-lo-	-lo-	1.B	-lo-	-lo-	.	.	.	2G#X/	-lo-	-lo-	2r	.	.
.	.	.	.	.	.	2c\	-t’e’l	-to e’l	2G#/	-re	-re,	2e/	e’l	e’l
.	.	.	.	.	.	2B\	van	van	2r	.	.	2g#X/	van	van
.	.	.	2c#X\	.	.	1A\	do-	do-	2e\	e’l	e’l	2a\	do-	do-
=11-	=11-	=11-	=11-	=11-	=11-	=11-	=11-	=11-	=11-	=11-	=11-	=11-	=11-	=11-
0D	-re	-re,	0d	-re	-re,	.	.	.	2f#X\	van	van	1b	-lo-	-lo-
.	.	.	.	.	.	1G	-lo-	-lo-	2g\	do-	do-	.	.	.
.	.	.	.	.	.	.	.	.	2a\	-lo-	-lo-	1a	-re	-re,
.	.	.	.	.	.	2F#X/	-re	-re,	2d\	-re	-re,	.	.	.
*	*	*	*	*	*	*	*Xij	*Xij	*	*	*	*	*	*
=12-	=12-	=12-	=12-	=12-	=12-	=12-	=12-	=12-	=12-	=12-	=12-	=12-	=12-	=12-
00r	.	.	2r	.	.	2r	.	.	2r	.	.	2r	.	.
.	.	.	1B	I	I	1G	I	I	1d	I	I	1gny	I	I
.	.	.	2d\	pen-	pen-	2D/	pen-	pen-	2fny\	pen-	pen-	2a\	pen-	pen-
*	*	*	*custos:c	*	*	*	*	*	*	*	*	*	*	*
!	!	!	!LO:LB:g=original	!	!	!	!	!	!	!	!	!	!	!
=13-	=13-	=13-	=13-	=13-	=13-	=13-	=13-	=13-	=13-	=13-	=13-	=13-	=13-	=13-
.	.	.	1c#X	-ſier	-sier	1A	-ſier	-sier	1e	-ſier	-sier	1a	-ſier	-sier
.	.	.	1d	fol-	fol-	1G	fol-	fol-	1g	fol-	fol-	1b	fol-	fol-
=14-	=14-	=14-	=14-	=14-	=14-	=14-	=14-	=14-	=14-	=14-	=14-	=14-	=14-	=14-
00r	.	.	2d\	-li e	-li e	2G/	-lì e	-li e	2g\	-li e	-li e	2b\	-li e	-li e
.	.	.	1e	le	le	1c	le	le de-	1g	le de-	le de-	1cc	le de-	le de-
.	.	.	2cny\	de-	de-	2Fny/	de-	-li-	2f\	-li-	-li-	2a\	-li-	-li-
=15-	=15-	=15-	=15-	=15-	=15-	=15-	=15-	=15-	=15-	=15-	=15-	=15-	=15-	=15-
.	.	.	4d\	-li-	-li-	2F/	-lir’-	-re	2f\	-re	-re	2a\	-re	-re
.	.	.	4c\	-re	-re	.	.	.	.	.	.	.	.	.
.	.	.	2.c\	im-	im-	2A/	-im-	-im-	2c/	im-	im-	2e/	im-	im-
.	.	.	.	.	.	1G	-pre-	-pre-	1d	-pre-	-pre-	1g	-pre-	-pre-
.	.	.	8B\	-re-	.	.	.	.	.	.	.	.	.	.
.	.	.	8A\	.	.	.	.	.	.	.	.	.	.	.
.	.	.	2B\	.	-re-	.	.	.	.	.	.	.	.	.
*	*	*	*	*	*	*	*	*	*custos:e	*	*	*custos:g	*	*
!	!	!	!	!	!	!	!	!	!LO:LB:g=original	!	!	!LO:LB:g=original	!	!
=16-	=16-	=16-	=16-	=16-	=16-	=16-	=16-	=16-	=16-	=16-	=16-	=16-	=16-	=16-
0r	.	.	2c\	-ſe	-se,	2C/	-ſe	-se,	1e	-ſe	-se,	0g	-ſe	-se,
.	.	.	2e\	E	E	2c\	E	E	.	.	.	.	.	.
.	.	.	2d\	le	le	2B\	le	le	2r	.	.	.	.	.
.	.	.	2e\	que-	que-	2c\	que-	que-	2e\	E	E	.	.	.
=17-	=17-	=17-	=17-	=17-	=17-	=17-	=17-	=17-	=17-	=17-	=17-	=17-	=17-	=17-
1r	.	.	1c	-re-	-re-	1A	-re-	-re-	2f\	le	le	1r	.	.
.	.	.	.	.	.	.	.	.	2e\	que-	que-	.	.	.
*	*	*	*	*	*	*custos:G	*	*	*	*	*	*	*	*
!	!	!	!	!	!	!LO:LB:g=original	!	!	!	!	!	!	!	!
2r	.	.	0d	-le	-le,	1G	-le	-le,	2g\	-re-	-re-	2r	.	.
2G\	E	E	.	.	.	.	.	.	2d\	-le	-le	2b\	E	E
*custos:F	*	*	*	*	*	*	*	*	*	*	*	*	*	*
!LO:LB:g=original	!	!	!	!	!	!	!	!	!	!	!	!	!	!
=18-	=18-	=18-	=18-	=18-	=18-	=18-	=18-	=18-	=18-	=18-	=18-	=18-	=18-	=18-
2F#X\	le	le	.	.	.	2r	.	.	2r	.	.	2a\	le	le
2G\	que-	que-	.	.	.	2B\	E	e	2d\	in-	in-	2b\	que-	que-
1E	-re-	-re-	1r	.	.	2c\	le	le	4e\	-dar-	-dar-	1g	-re-	-re-
.	.	.	.	.	.	.	.	.	4f\	-no	-no	.	.	.
.	.	.	.	.	.	2B\	que-	que-	4g\	al	al	.	.	.
!	!	!	!	!	!	!	!	!	!LO:SIC:v:s:t=-ven-	!	!	!	!	!
.	.	.	.	.	.	.	.	.	4e\	uen-	ven-	.	.	.
=19-	=19-	=19-	=19-	=19-	=19-	=19-	=19-	=19-	=19-	=19-	=19-	=19-	=19-	=19-
1D	-le	-le	2r	.	.	1d	-re-	-re-	4f\	-to	-to	2a\	-le	-le,
.	.	.	.	.	.	.	.	.	4g\	ſpe-	spe-	.	.	.
*	*	*	*	*	*	*	*	*	*	*	*	*	*ij	*ij
.	.	.	2d\	E	e	.	.	.	1a	.	.	2f/	E	e
2r	.	.	2c#X\	le	le	1A	-le	-le,	.	.	.	2e/	le	le
2D/	in-	in-	2d\	que-	que-	.	.	.	2a\	-ſe	-se,	2f#X/	que-	que-
=20-	=20-	=20-	=20-	=20-	=20-	=20-	=20-	=20-	=20-	=20-	=20-	=20-	=20-	=20-
4E\	-dar-	-dar-	1B	-re-	-re-	1r	.	.	2r	.	.	2g/	-re-	-re-
*	*	*	*	*	*	*	*	*	*	*	*	*	*	*
4Fny\	-no al	-no al	.	.	.	.	.	.	.	.	.	.	.	.
4G\	ven-	ven-	.	.	.	.	.	.	2e\	E	e	2g/	-le	-le in-
4E\	-to	-to	.	.	.	.	.	.	.	.	.	.	.	.
*	*	*	*	*	*	*	*	*	*	*	*	*	*Xij	*Xij
1F	ſpe-	spe-	1A	-le	-le	2r	.	.	2c/	le	le	4a\	indar-	-dar-
.	.	.	.	.	.	.	.	.	.	.	.	4b\	-no al	-no al
.	.	.	.	.	.	2c\	E	e	2f\	que-	que-	4cc\	uen-	ven-
.	.	.	.	.	.	.	.	.	.	.	.	4a\	-to	-to
*	*	*	*custos:e	*	*	*	*	*	*	*	*	*	*	*
!	!	!	!LO:LB:g=original	!	!	!	!	!	!	!	!	!	!	!
=21-	=21-	=21-	=21-	=21-	=21-	=21-	=21-	=21-	=21-	=21-	=21-	=21-	=21-	=21-
2G\	-ſe	-se,	0r	.	.	2B\	le	le	2d\	-re-	-re-	2g/	ſpe-	spe-
2C/	in-	in-	.	.	.	2c\	que-	que-	2e\	-le in-	-le in-	2g/	-ſe	-se,
*	*	*	*	*	*	*	*	*	*custos:f	*	*	*	*	*
!	!	!	!	!	!	!	!	!	!LO:LB:g=original	!	!	!	!	!
4D/	-dar-	-dar-	.	.	.	1.A	-re-	-re-	4f\	-dar-	-dar-	1r	.	.
4E\	-n’al	-no al	.	.	.	.	.	.	4g\	-no al	-no al	.	.	.
4F\	ven-	ven-	.	.	.	.	.	.	4a\	ven-	ven-	.	.	.
4D/	-to	-to	.	.	.	.	.	.	4f\	-to	-to	.	.	.
=22-	=22-	=22-	=22-	=22-	=22-	=22-	=22-	=22-	=22-	=22-	=22-	=22-	=22-	=22-
1E	ſpe-	spe-	2r	.	.	.	.	.	1e	ſpe-	spe-	2r	.	.
.	.	.	2e\	in-	in-	2G#X/	-le in-	-le in-	.	.	.	2b\	in-	in-
*	*	*	*	*	*	*	*	*	*	*	*	*custos:cc	*	*
!	!	!	!	!	!	!	!	!	!	!	!	!LO:LB:g=original	!	!
1AA	-ſe	-se,	4cny\	-dar-	-dar-	4A/	-dar-	-dar-	1e	-ſe	-se,	4cc\	-dar-	-dar-
.	.	.	4d\	-no al	-no al	4B\	-no al	-no al	.	.	.	4b\	-no al	-no al
!	!	!	!LO:SIC:v:s:t=ven-	!	!	!	!	!	!	!	!	!	!	!
.	.	.	4e\	uen-	ven-	4c\	ven-	ven-	.	.	.	4a\	ven-	ven-
.	.	.	4c\	-to	-to	4A/	-to	-to	.	.	.	4cc\	-to	-to
=23-	=23-	=23-	=23-	=23-	=23-	=23-	=23-	=23-	=23-	=23-	=23-	=23-	=23-	=23-
2r	.	.	2d\	ſpe-	spe-	2Gny/	ſpe-	spe-	2r	.	.	2b\	ſpe-	spe-
2.GG/	M’ha(n)-	M’ha(n)-	2B\	-ſe	-se,	2G/	-ſe	-se,	2.d\	M’ha(n)-	M’ha(n)-	2b\	-ſe	-se,
.	.	.	2r	.	.	2.B\	M’ha(n)-	M’ha(n)-	.	.	.	2.g/	M’ha(n)-	M’ha(n)-
4GG/	-no à	-no a	.	.	.	.	.	.	4d\	-n’a	-no a	.	.	.
*custos:GG	*	*	*	*	*	*	*	*	*	*	*	*	*	*
!LO:LB:g=original	!	!	!	!	!	!	!	!	!	!	!	!	!	!
1GG/	me	me	2.Gny/	M’ha(n)-	M’ha(n)-	.	.	.	1d\	me	me	.	.	.
.	.	.	.	.	.	4B\	-n’a	-no a	.	.	.	4g/	-no a	-no a
*	*	*	*	*	*	*custos:B	*	*	*	*	*	*	*	*
!	!	!	!	!	!	!LO:LB:g=original	!	!	!	!	!	!	!	!
=24-	=24-	=24-	=24-	=24-	=24-	=24-	=24-	=24-	=24-	=24-	=24-	=24-	=24-	=24-
.	.	.	.	.	.	2B\	me	me	.	.	.	1g	me	me
.	.	.	4G/	-n’a	-no a	.	.	.	.	.	.	.	.	.
1C	tol-	tol-	2G/	me	me	1c	tol-	tol-	1e	tol-	tol-	.	.	.
.	.	.	2c\	tol-	tol-	.	.	.	.	.	.	2g/	tol-	tol-
2E\	-to e	-to, e	2G/	-to	-to, e	2B\	-to e	-to, e	1g\	-to e	-to, e	2e/	-to e	-to, e
=25-	=25-	=25-	=25-	=25-	=25-	=25-	=25-	=25-	=25-	=25-	=25-	=25-	=25-	=25-
1D	poſ-	pos-	1A	poſ-	pos-	1.d	poſ-	pos-	.	.	.	1a	poſ-	pos-
.	.	.	.	.	.	.	.	.	2f\	poſ-	pos-	.	.	.
1G	-to in	-to in	1B-yX	-to	-to	.	.	.	2d\	-to in	-to in	1g	-to in	-to in
.	.	.	.	.	.	2G/	-to	-to 	1e\	lun-	lun-	.	.	.
=26-	=26-	=26-	=26-	=26-	=26-	=26-	=26-	=26-	=26-	=26-	=26-	=26-	=26-	=26-
0F	lun-	lun-	1r	.	.	2A/	in	in	.	.	.	2cc\	lun-	lun-
.	.	.	.	.	.	2B\	lun-	lun-	2d\	-go er-	-go er-	2b\	-go er-	-go er-
.	.	.	1A	in	in	2c\	-g’er-	-go er-	2c/	-ro-	-ro-	1a	-ro-	-ro-
.	.	.	.	.	.	2d\	-ro-	-ro-	4B/	.	.	.	.	.
.	.	.	.	.	.	.	.	.	4A/	.	.	.	.	.
=27-	=27-	=27-	=27-	=27-	=27-	=27-	=27-	=27-	=27-	=27-	=27-	=27-	=27-	=27-
1E	-g’er-	-go er-	2Bny\	lun-	lun-	2G/	-re-	-re,	1e	.	.	1g	-re	-re,
.	.	.	2c\	-go er-	-go er-	1g	-er-	er-	.	.	.	.	.	.
2.D/	-ro-	-ro-	1.d	-ro-	-ro-	.	.	.	1A	-re	-re,	2r	.	.
.	.	.	.	.	.	2f#X\	-ro-	-ro-	.	.	.	1dd\	in	in
4C/	.	.	.	.	.	.	.	.	.	.	.	.	.	.
*	*	*	*	*	*	*	*	*	*custos:c	*	*	*	*	*
!	!	!	!	!	!	!	!	!	!LO:LB:g=original	!	!	!	!	!
=28-	=28-	=28-	=28-	=28-	=28-	=28-	=28-	=28-	=28-	=28-	=28-	=28-	=28-	=28-
2BB/	.	.	.	.	.	0g	-re	-re.	2r	.	.	.	.	.
2C/	.	.	2e\	-re	-re,	.	.	.	2c/	in	in	1cc	lu(n)-	lu(n)-
1GG	-re	-re.	2r	.	.	.	.	.	2d\	lu(n)-	lu(n)-	.	.	.
.	.	.	2G/	in	in	.	.	.	2e\	g’er-	-go er-	2b\	-go er-	-go er-
*	*	*	*	*	*	*	*	*	*	*	*	*custos:a	*	*
!	!	!	!	!	!	!	!	!	!	!	!	!LO:LB:g=original	!	!
=29-	=29-	=29-	=29-	=29-	=29-	=29-	=29-	=29-	=29-	=29-	=29-	=29-	=29-	=29-
0r	.	.	2A/	lu(n)-	lu(n)-	0r	.	.	2f#X\	-ro-	-ro-	0a	-ro-	-ro-
.	.	.	2B\	-g’er-	-go er-	.	.	.	2.g\	.	.	.	.	.
*	*	*	*custos:c	*	*	*	*	*	*	*	*	*	*	*
!	!	!	!LO:LB:g=original	!	!	!	!	!	!	!	!	!	!	!
.	.	.	2c\	-ro-	-ro-	.	.	.	.	.	.	.	.	.
!	!	!	!	!	!	!	!	!	!LO:SIC:s=8f#\	!	!	!	!	!
.	.	.	.	.	.	.	.	.	8f#X\	.	.	.	.	.
.	.	.	.	.	.	.	.	.	8e\	.	.	.	.	.
!	!	!	!	!	!	!	!	!	!LO:SIC:s=2f#\	!	!	!	!	!
.	.	.	2d\	.	.	.	.	.	2f#X\	.	.	.	.	.
=30-	=30-	=30-	=30-	=30-	=30-	=30-	=30-	=30-	=30-	=30-	=30-	=30-	=30-	=30-
1r	.	.	0G	-re	-re.	2r	.	.	1g	-re	-re.	2b\	-re	-re.
.	.	.	.	.	.	1G	Ma	Ma	.	.	.	2g/	Ma	Ma
1C	Ma	Ma	.	.	.	.	.	.	2r	.	.	2e/	tu	tu
.	.	.	.	.	.	2E/	tu	tu	2e\	Ma	Ma	2c/	del	del
=31-	=31-	=31-	=31-	=31-	=31-	=31-	=31-	=31-	=31-	=31-	=31-	=31-	=31-	=31-
2AA/	tu	tu	2r	.	.	2E/	del	del	2c/	tu	tu	0cc	cie-	cie-
2FF/	del	del	2c\	Ma	Ma	4F/	cie-	cie-	2A/	del	del	.	.	.
.	.	.	.	.	.	4G/	.	.	.	.	.	.	.	.
2.F\	cie-	cie-	2A/	tu	tu	4A/	.	.	1.a	cie-	cie-	.	.	.
.	.	.	.	.	.	4B\	.	.	.	.	.	.	.	.
.	.	.	2F/	del	del	2.c\	.	.	.	.	.	.	.	.
4E\	.	.	.	.	.	.	.	.	.	.	.	.	.	.
=32-	=32-	=32-	=32-	=32-	=32-	=32-	=32-	=32-	=32-	=32-	=32-	=32-	=32-	=32-
1D	.	.	1.f	cie-	cie-	.	.	.	.	.	.	1dd	-lo e-	-lo e-
.	.	.	.	.	.	8B\	.	.	.	.	.	.	.	.
.	.	.	.	.	.	8A\	.	.	.	.	.	.	.	.
*	*	*	*	*	*	*custos:B	*	*	*	*	*	*	*	*
!	!	!	!	!	!	!LO:LB:g=original	!	!	!	!	!	!	!	!
.	.	.	.	.	.	2B\	.	.	2d\	-lo	-lo	.	.	.
1C	-lo e-	-lo e-	.	.	.	2.c\	-lo	-lo	2r	.	.	0.g	-ter-	-ter-
.	.	.	2e\	-lo e-	-lo e-	.	.	.	2c/	e-	e-	.	.	.
.	.	.	.	.	.	8B\	.	.	.	.	.	.	.	.
.	.	.	.	.	.	8A\	.	.	.	.	.	.	.	.
*custos:E	*	*	*	*	*	*	*	*	*	*	*	*	*	*
!LO:LB:g=original	!	!	!	!	!	!	!	!	!	!	!	!	!	!
=33-	=33-	=33-	=33-	=33-	=33-	=33-	=33-	=33-	=33-	=33-	=33-	=33-	=33-	=33-
2E\	-ter-	-ter-	2e\	-ter-	-ter-	1G	.	.	2B/	-ter-	-ter-	.	.	.
2.G\	-no al-	-no al-	2.d\	-no al-	-no al-	.	.	.	2.B/	-no al-	-no al-	.	.	.
.	.	.	.	.	.	2r	.	.	.	.	.	.	.	.
4E\	-to	-to	4c\	-to	-to	.	.	.	4e\	-to	-to	.	.	.
2G\	mo-	Mo-	2B\	mo-	Mo-	2.G/	al-	al-	2d\	mo-	Mo-	.	.	.
=34-	=34-	=34-	=34-	=34-	=34-	=34-	=34-	=34-	=34-	=34-	=34-	=34-	=34-	=34-
2C/	-to-	-to-	2e\	-to-	-to-	.	.	.	2c/	-to-	-to-	1g	-no	-no
.	.	.	.	.	.	4E/	-to	-to	.	.	.	.	.	.
*	*	*	*	*	*	*	*	*	*custos:B	*	*	*	*	*
!	!	!	!	!	!	!	!	!	!LO:LB:g=original	!	!	!	!	!
4GG/	-re	-re,	2d\	-re	-re,	2G/	mo-	Mo-	4B/	-re	-re,	.	.	.
2G\	al-	al-	.	.	.	.	.	.	2g\	al-	al-	.	.	.
.	.	.	2r	.	.	2C/	-to-	-to-	.	.	.	2r	.	.
4c\	-to	-to	.	.	.	.	.	.	4e\	-to	-to	.	.	.
2B\	mo-	Mo-	2.g\	al-	al-	2G/	-re	-re,	2d\	mo-	Mo-	2.dd\	al-	al-
=35-	=35-	=35-	=35-	=35-	=35-	=35-	=35-	=35-	=35-	=35-	=35-	=35-	=35-	=35-
2c\	-to-	-to-	.	.	.	1r	.	.	2g\	-to-	-to-	.	.	.
.	.	.	4e\	-to	-to	.	.	.	.	.	.	4cc\	-to	-to
2G\	-re	-re,	2d\	mo-	Mo-	.	.	.	2g\	-re	-re,	2b\	mo-	Mo-
0C	La	La	2e\	-to-	-to-	0G	La	La	1r	.	.	2cc\	-to-	-to-
.	.	.	2e\	-re	-re,	.	.	.	.	.	.	2g/	-re	-re,
=36-	=36-	=36-	=36-	=36-	=36-	=36-	=36-	=36-	=36-	=36-	=36-	=36-	=36-	=36-
.	.	.	1c	La	La	.	.	.	1e	La	La	2r	.	.
.	.	.	.	.	.	.	.	.	.	.	.	1ee	La	La
1.E	cui	cui	1.B	cui	cui	1.G#X	cui	cui	1.e	cui	cui	.	.	.
.	.	.	.	.	.	.	.	.	.	.	.	1b\	cui	cui
=37-	=37-	=37-	=37-	=37-	=37-	=37-	=37-	=37-	=37-	=37-	=37-	=37-	=37-	=37-
2E\	pie-	pie-	2B\	pie-	pie-	2G#yX/	pie-	pie-	2e\	pie-	pie-	2b\	pie-	pie-
*	*	*	*custos:B	*	*	*	*	*	*	*	*	*	*	*
!	!	!	!LO:LB:g=original	!	!	!	!	!	!	!	!	!	!	!
1E	-tà	-tà	2B\	-tà	-tà	1G#	-tà	-tà	1e	-tà	-tà	1b	-tà	-tà
.	.	.	1E/	pre-	pre-	.	.	.	.	.	.	.	.	.
=38-	=38-	=38-	=38-	=38-	=38-	=38-	=38-	=38-	=38-	=38-	=38-	=38-	=38-	=38-
2AA/	pre-	pre-	.	.	.	2A/	pre-	pre-	2e\	pre-	pre-	2cc\	pre-	pre-
1AA	-cor-	-cor-	1e	-cor-	-cor-	1A	-cor-	-cor-	1a	-cor-	-cor-	1cc	-cor-	-cor-
*	*	*	*	*	*	*	*	*	*	*	*	*custos:b	*	*
!	!	!	!	!	!	!	!	!	!	!	!	!LO:LB:g=original	!	!
2BB/	-re à	-re a	1d\	-re à	-re a	1D/	-re à	-re a	2g\	-re à	-re a	2b\	-re à	-re a
=39-	=39-	=39-	=39-	=39-	=39-	=39-	=39-	=39-	=39-	=39-	=39-	=39-	=39-	=39-
2D/	noſ-	nos-	.	.	.	.	.	.	2fny\	noſ-	nos-	1.a	noſ-	nos-
2C#X/	-tr’of-	-tre of-	1A	noſ-	nos-	2E/	noſ-	nos-	2e\	-tre of-	-tre of-	.	.	.
1D	-fe-	-fe-	.	.	.	2F#X/	-tr’of-	-tre of-	1d	-fe-	-fe-	.	.	.
*	*	*	*	*	*	*custos:G	*	*	*	*	*	*	*	*
!	!	!	!	!	!	!LO:LB:g=original	!	!	!	!	!	!	!	!
.	.	.	2B-X\	-tre of-	-tre of-	2.Gny/	-fe-	-fe-	.	.	.	2g/	-tre of-	-tre of-
*custos:D	*	*	*	*	*	*	*	*	*	*	*	*	*	*
!LO:LB:g=original	!	!	!	!	!	!	!	!	!	!	!	!	!	!
=40-	=40-	=40-	=40-	=40-	=40-	=40-	=40-	=40-	=40-	=40-	=40-	=40-	=40-	=40-
1D	-ſe	-se,	2A/	-fe-	-fe-	.	.	.	1d	-ſe	-se,	1a	-fe-	-fe-
.	.	.	.	.	.	8F#X/	.	.	.	.	.	.	.	.
.	.	.	.	.	.	8E/	.	.	.	.	.	.	.	.
.	.	.	2A/	-ſe	-se,	2F#X/	.	.	.	.	.	.	.	.
2GG/	Per	Per	2d\	Per	Per	1G	-ſe	-se,	2r	.	.	2b\	-ſe	-se,
1G\	quel	quel	1Bny\	quel	quel	.	.	.	2d\	Per	Per	2dd\	Per	Per
=41-	=41-	=41-	=41-	=41-	=41-	=41-	=41-	=41-	=41-	=41-	=41-	=41-	=41-	=41-
.	.	.	.	.	.	0r	.	.	2.g\	quel	quel	2.b\	quel	quel
2E\	no(n)	no(n)	2G/	non	non	.	.	.	.	.	.	.	.	.
.	.	.	.	.	.	.	.	.	4e\	no(n)	no(n)	4g/	non	non
*	*	*	*	*	*	*	*	*	*custos:f	*	*	*	*	*
!	!	!	!	!	!	!	!	!	!LO:LB:g=original	!	!	!	!	!
2D/	fin-	fin-	2d\	fin-	fin-	.	.	.	2f#X\	fin-	fin-	2a\	fin-	fin-
2G\	-to a-	-to a-	2d\	-to a-	-to a-	.	.	.	2g\	-to a-	-to a-	2b\	-to a-	-to a-
=42-	=42-	=42-	=42-	=42-	=42-	=42-	=42-	=42-	=42-	=42-	=42-	=42-	=42-	=42-
1F	-mor	-mor	2f\	-mor	-mor	00r	.	.	1a	-mor	-mor	1cc	-mor	-mor
.	.	.	1c	ch’in	ch’in	.	.	.	.	.	.	.	.	.
2E\	ch’in	ch’in	.	.	.	.	.	.	2g\	ch’in	ch’in	2cc\	ch’in	ch’in
1F\	noi	noi	1c\	noi	noi	.	.	.	1fny\	noi	noi	1a\	noi	noi
=43-	=43-	=43-	=43-	=43-	=43-	=43-	=43-	=43-	=43-	=43-	=43-	=43-	=43-	=43-
.	.	.	.	.	.	.	.	.	.	.	.	.	.	.
2G\	t’ac-	t’ac-	2B\	t’ac-	t’ac-	.	.	.	1d	t’ac-	t’ac-	2g/	t’ac-	t’ac-
1E	-ce-	-ce-	1G	-ce-	-ce-	.	.	.	.	.	.	1g	-ce-	-ce-
.	.	.	.	.	.	.	.	.	2c#X/	-ce-	-ce-	.	.	.
=44-	=44-	=44-	=44-	=44-	=44-	=44-	=44-	=44-	=44-	=44-	=44-	=44-	=44-	=44-
2D/	-ſe	-se,	1A	-ſe	-se,	2r	.	.	1d	-ſe	-se,	1f#X	-ſe	-se,
2D/	Driz-	Driz-	.	.	.	2A/	Driz-	Driz-	.	.	.	.	.	.
4G\	-z’à	-z’a	1r	.	.	4B\	-z’à	-z’a	2d\	Driz-	Driz-	1r	.	.
4F\	buo(n)	buo(n)	.	.	.	4A/	buo(n)	buo(n)	.	.	.	.	.	.
4E\	cors’	cor-	.	.	.	4G/	cor-	cor-	2.g\	-z’à	-z’a	.	.	.
4D/	il	-so il	.	.	.	4Fny/	-ſo	-so il	.	.	.	.	.	.
=45-	=45-	=45-	=45-	=45-	=45-	=45-	=45-	=45-	=45-	=45-	=45-	=45-	=45-	=45-
4Cny/	de-	de-	1r	.	.	4E/	il de-	de-	.	.	.	2r	.	.
4D/	-ſu-	-su-	.	.	.	4F/	-ſu-	-su-	4f\	buo(n)	buo(n)	.	.	.
4E\	-ia-	-ia-	.	.	.	2.G/	-ia-	-ia-	4e\	cor-	cor-	2g/	Driz-	Driz-
4BB/	-to	-to	.	.	.	.	.	.	4d\	-ſo	-so	.	.	.
*custos:C	*	*	*	*	*	*	*	*	*	*	*	*	*	*
!LO:LB:g=original	!	!	!	!	!	!	!	!	!	!	!	!	!	!
1C	co-	co-	2r	.	.	.	.	.	4cny/	il de-	il de-	4e/	-z’à	-z’a
.	.	.	.	.	.	4F/	-to	-to	4d\	-ſu-	-su-	4fny/	buon	buon
*	*	*	*	*	*	*	*	*	*	*	*	*custos:g	*	*
!	!	!	!	!	!	!	!	!	!	!	!	!LO:LB:g=original	!	!
.	.	.	2G/	Driz-	Driz-	2E/	co-	co-	4e\	-ia-	-ia-	4g/	cor-	cor-
.	.	.	.	.	.	.	.	.	4f\	-to	-to	4a\	-ſo il	-so il
*	*	*	*custos:G	*	*	*	*	*	*	*	*	*	*	*
!	!	!	!LO:LB:g=original	!	!	!	!	!	!	!	!	!	!	!
=46-	=46-	=46-	=46-	=46-	=46-	=46-	=46-	=46-	=46-	=46-	=46-	=46-	=46-	=46-
1GG	-re	-re,	4G/	-z’à	-z’a	2D/	-re	-re,	1g	co-	co-	4b\	de-	de-
.	.	.	4A/	buon	buon	.	.	.	.	.	.	4cc\	-ſu-	-su-
.	.	.	4B\	cor-	cor-	2d\	Driz-	driz-	.	.	.	4dd\	-ia-	-ia-
.	.	.	4c\	-ſo il	-so il	.	.	.	.	.	.	4cc\	-to	-to
2r	.	.	1.d	de-	de-	4G/	-z’à	-z’a	2g\	-re	-re,	2b\	co-	co-
.	.	.	.	.	.	4A/	buo(n)	buo(n)	.	.	.	.	.	.
*	*	*	*	*	*	*custos:B	*	*	*	*	*	*	*	*
!	!	!	!	!	!	!LO:LB:g=original	!	!	!	!	!	!	!	!
2G\	Driz-	driz-	.	.	.	4B\	cor-	cor-	2d\	il	il	2b\	-re	-re,
.	.	.	.	.	.	4c\	-ſo il	-so il	.	.	.	.	.	.
*	*	*	*	*	*	*	*	*	*custos:f	*	*	*	*	*
!	!	!	!	!	!	!	!	!	!LO:LB:g=original	!	!	!	!	!
=47-	=47-	=47-	=47-	=47-	=47-	=47-	=47-	=47-	=47-	=47-	=47-	=47-	=47-	=47-
4D/	-z’à	-z’a	.	.	.	2d\	de-	de-	2f\	de-	de-	2a\	il	il
4E\	buo(n)	buo(n)	.	.	.	.	.	.	.	.	.	.	.	.
4F\	cor-	cor-	2A/	-ſu-	-su-	2d\	-ſu-	-su-	2f\	-ſu-	-su-	4a\	de-	de-
4G\	-ſo il	-so il	.	.	.	.	.	.	.	.	.	4b\	-ſu-	-su-
4A\	de-	de-	2A/	-ia-	-ia-	2c\	-ia-	-ia-	2e\	-ia-	-ia-	2cc\	-ia-	-ia-
4AA/	-ſu-	-su-	.	.	.	.	.	.	.	.	.	.	.	.
4D/	-ia-	-ia-	1A\	-to	-to	2F/	-to	-to	2d\	-to	-to	2a\	-to	-to
4C/	-to	-to	.	.	.	.	.	.	.	.	.	.	.	.
=48-	=48-	=48-	=48-	=48-	=48-	=48-	=48-	=48-	=48-	=48-	=48-	=48-	=48-	=48-
0BB	co-	co-	.	.	.	0D	co-	co-	0d	co-	co-	0b	co-	co-
.	.	.	4G#X/	co-	co-	.	.	.	.	.	.	.	.	.
.	.	.	4F#X/	.	.	.	.	.	.	.	.	.	.	.
!	!	!	!LO:SIC:s=1G#	!	!	!	!	!	!	!	!	!	!	!
.	.	.	1G#X	.	.	.	.	.	.	.	.	.	.	.
=49-	=49-	=49-	=49-	=49-	=49-	=49-	=49-	=49-	=49-	=49-	=49-	=49-	=49-	=49-
00AA	-re.	-re.	00A	-re.	-re.	00E	-re.	-re.	00c#X	-re.	-re.	00e	-re.	-re.
==	==	==	==	==	==	==	==	==	==	==	==	==	==	==
*-	*-	*-	*-	*-	*-	*-	*-	*-	*-	*-	*-	*-	*-	*-
!!!system-decoration: [(s1,s2,s3,s4,s5)]
!!!filter-modern: sic -sq | shed -e "s/LO:DY:(a|b|rj)/LO:dy:$1/L" | autostem -r | tie -s | shed -e "s/-//B" | shed -k -e "s/[<>]//g" | shed -e "s/^custos:/Xcustos:/I" | shed -e "s/TX(.*):t=P:/tx$1:t=P:/LG" | shed -e "s/^(\d+[\/\\]right)/$1yy/I; s/^(\d+[\/\\]left)/$1yy/I" | humtr -p | modori -m
!!!ENC: Filip Voros
!!!END: 2022-06-28
!!!EED: Natalia Wrzos
!!!EEV: 2022-07-14
!!!ENC-modern: Katarzyna Serwa
!!!END-modern: 2022-08-14
